source/Icon/checklist.svg

<svg width="48" height="48" viewBox="0 0 48 48" fill="none" xmlns="http://www.w3.org/2000/svg">
    <path stroke-linejoin="round" stroke-linecap="round" stroke-width="4" stroke="#333"
        d="m34 10 8 8M42 10l-8 8M44 30l-7 8-4-4M26 10H4v8h22v-8ZM26 30H4v8h22v-8Z" />
</svg>

<svg width="32" height="32" viewBox="0 0 48 48" fill="none" xmlns="http://www.w3.org/2000/svg">
    <path d="M34 10L42 18" stroke="#000000" stroke-width="4" stroke-linecap="round" stroke-linejoin="round"/>
    <path d="M42 10L34 18" stroke="#000000" stroke-width="4" stroke-linecap="round" stroke-linejoin="round"/>
    <path d="M44 30L37 38L33 34" stroke="#000000" stroke-width="4" stroke-linecap="round" stroke-linejoin="round"/>
    <path d="M26 10H4V18H26V10Z" fill="#2F88FF" stroke="#000000" stroke-width="4" stroke-linecap="round" stroke-linejoin="round"/>
    <path d="M26 30H4V38H26V30Z" fill="#2F88FF" stroke="#000000" stroke-width="4" stroke-linecap="round" stroke-linejoin="round"/>
</svg>
